X:1
T: Ask My Father
C:
R:Jig
Q:180
K:G
M:6/8
L:1/16
G2|F4D2 D2E2D2|A4D2 D2E2D2|A2B2A2 B4G2|A2B2A2 A4G2|F4D2 D2E2D2|A4D2 D2E2D2|G4B2 A4F2|G6 A4G2|
F4D2 D2E2D2|A4D2 D2E2D2|A2B2A2 B4G2|A2B2A2 A4G2|F4D2 D2E2D2|A4D2 D2E2D2|G4B2 A4F2|G6 z4g2|
f4d2 e2f2g2|f4d2 c2A2G2|A2B2A2 B4G2|A2B2A2 A4g2|f4d2 e2f2g2|f4d2 c2A2F2|G4B2 A4F2|G6 G4g2|
f4d2 e2f2g2|f4d2 c2A2G2|A2B2A2 B4G2|A2B2A2 A4g2|f4d2 e2f2g2|f4d2 c2A2F2|G4B2 A4F2|G6 G4||
